assets/images/icons/src/shopping-cart.svg

<?xml version="1.0" encoding="utf-8"?>
<!-- Generated by IcoMoon.io -->
<!DOCTYPE svg PUBLIC "-//W3C//DTD SVG 1.1//EN" "http://www.w3.org/Graphics/SVG/1.1/DTD/svg11.dtd">
<svg version="1.1" xmlns="http://www.w3.org/2000/svg" xmlns:xlink="http://www.w3.org/1999/xlink" width="13" height="14" viewBox="0 0 13 14">
<path fill="#444444" d="M5 12q0 0.406-0.297 0.703t-0.703 0.297-0.703-0.297-0.297-0.703 0.297-0.703 0.703-0.297 0.703 0.297 0.297 0.703zM12 12q0 0.406-0.297 0.703t-0.703 0.297-0.703-0.297-0.297-0.703 0.297-0.703 0.703-0.297 0.703 0.297 0.297 0.703zM13 3.5v4q0 0.187-0.129 0.332t-0.316 0.168l-8.156 0.953q0.102 0.469 0.102 0.547 0 0.125-0.187 0.5h7.187q0.203 0 0.352 0.148t0.148 0.352-0.148 0.352-0.352 0.148h-8q-0.203 0-0.352-0.148t-0.148-0.352q0-0.086 0.062-0.246t0.125-0.281 0.168-0.312 0.121-0.23l-1.383-6.43h-1.594q-0.203 0-0.352-0.148t-0.148-0.352 0.148-0.352 0.352-0.148h2q0.125 0 0.223 0.051t0.152 0.121 0.102 0.191 0.062 0.203 0.043 0.23 0.035 0.203h9.383q0.203 0 0.352 0.148t0.148 0.352z"></path>
</svg>

<svg xmlns="http://www.w3.org/2000/svg" width="13" height="14" viewBox="0 0 13 14"><path fill="#444" d="M5 12q0 .406-.297.703T4 13t-.703-.297T3 12t.297-.703T4 11t.703.297T5 12zm7 0q0 .406-.297.703T11 13t-.703-.297T10 12t.297-.703T11 11t.703.297T12 12zm1-8.5v4q0 .187-.129.332T12.555 8l-8.156.953q.102.469.102.547 0 .125-.187.5h7.187q.203 0 .352.148t.148.352-.148.352-.352.148h-8q-.203 0-.352-.148t-.148-.352q0-.086.062-.246t.125-.281.168-.312.121-.23l-1.383-6.43H.5q-.203 0-.352-.148T0 2.501t.148-.352.352-.148h2q.125 0 .223.051t.152.121.102.191.062.203.043.23.035.203H12.5q.203 0 .352.148T13 3.5z"/></svg>
